X:32
T:Hjortingens polska
R:polska J
H:efter Hjort Anders Olsson
A:Bingsj\"o, Dalarna
Z:id:hn-jp-32
M:3/4
L:1/16
K:A
E2 | A3B c2d/c/B c2B2 | e3c {B}A4 TE4- | E3a/b/ a2Tg2 Tf2e2 |
^defg Ta4 Tg3f | {ef}Te2^de f2df e3B |1 G2BG E4 E2 :|2 G2BG E6 ||
|: TD2 | C3E A2E2 F3=G | {=GFE}F3A B2F2 {^GA}G2TA2 |
{GF}G3B e2B2 c2Td2 | c2e2 Tf3c ^d3e | ^d2f2 b2f2 g3a |
Tg2fe ^defg Ta2A2- | A2Bc d2fe dcBA | GABG A6 :|
|: e2- | e2fe dcBA GABc | d2fd e6 e2- | e2fe dcBA GABc |
BAGA E6 :||: TD2 | C3E A2E2 F3=G | {=GFE}F3A B2F2 {^GA}G2TA2 |
{GF}G3B e2B2 c2Td2 | c2e2 Tf3c ^d3e | ^d2f2 b2f2 g3a |
Tg2fe ^defg Ta2A2- | A2Bc d2fe dcBA | GABG A6 :|

